!! 00000] TT[WS
!!!OTL: Xinshang de ren
!!!ARE: Asia, China,ÿShanxi Ningwu
!! Ethnic Group: Han
!! WI, 134
!!!SCT: J0161
!!!YEM: Copyright 1995, estate of Helmut Schaffrath.
**kern
*ICvox
*Ivox
*M2/4
*k[b-]
*F:
{4cc
8cc
8dd
=1
4cc
8b-
8a
=2
4g
8g
8a
=3
2cc
=4
4a
8a
8g
=5
2f}
=6
{4cc
8cc
8a
=7
4.g
8a
=8
4c
8c
8d
=9
2f
=10
8a
8g
8f
8d
=11
2c}
==
!!!AGN: Xiaodiao. Qingge
!!!ONB: ESAC (Essen Associative Code) Database: CHINA
!!!AMT: simple duple
!!!AIN: vox
!!!EED: Helmut Schaffrath
!!!EEV: 1.0
*-
